X:94
T:Teetotaller's, The
S:The Session: https://thesession.org/tunes/114#setting55402
C:Traditional
R:reel
K:G
M:4/4
L:1/8
Q:1/4=120
(3DEF|:"G"G2GF GABc|d2ge dBAc|"Em"BEED EFGA|BcAF GFED|
|"G"G2GF GABc|d2ge dBAc|"Em"BEED EFGA|1"D"BcAF "G"G2 (3DEF:|2"D"BcAF "G"G2 GA|]
|:"Em"Beef e2ef|ggga gfed|"D"Bdd^c d2de|fgaf gfed|
|"Em"Beed e2ef|ggga gfed|BcBG EFGA|1 "D"BcAF "G"G2 GA:|2 "D"BcAF "G"G4||

